src/images/wired-logo.svg

<?xml version="1.0" encoding="utf-8"?>
<!-- Generator: Adobe Illustrator 16.2.1, SVG Export Plug-In . SVG Version: 6.00 Build 0)  -->
<!DOCTYPE svg PUBLIC "-//W3C//DTD SVG 1.1//EN" "http://www.w3.org/Graphics/SVG/1.1/DTD/svg11.dtd">
<svg version="1.1" xmlns="http://www.w3.org/2000/svg" xmlns:xlink="http://www.w3.org/1999/xlink" x="0px" y="0px" width="141px"
	 height="60px" viewBox="0 0 141 60" enable-background="new 0 0 141 60" xml:space="preserve">
<g id="Layer_2">
</g>
<g id="Layer_1">
	<g>
		<path fill="#FFFFFF" d="M57.181,43.574h25.019V18.097H57.181V43.574z M62.919,22.151h9.946c0,0,4.285-0.23,4.285,4.438
			c0,4.667-2.601,4.896-2.601,4.896s2.601,0.153,2.601,3.749s0,3.979,0,3.979h-3.443v-3.75c0,0,0-2.906-1.989-2.906
			s-5.432,0.076-5.432,0.076v6.656h-3.366V22.151z"/>
		<path fill="#FFFFFF" d="M73.707,27.201c0-2.448-2.601-2.065-2.601-2.065h-4.82v4.744c0,0,2.602-0.077,4.744-0.077
			C73.172,29.802,73.707,29.344,73.707,27.201z"/>
		<path fill="#FFFFFF" d="M38.934,25.02c0,0,3.991,0,4.208,0v11.478c-0.217,0-4.208,0-4.208,0v2.907h12.089v-2.907
			c0,0-4.373,0-4.591,0V25.02c0.218,0,4.591,0,4.591,0v-2.906H38.934V25.02z"/>
		<path fill="#FFFFFF" d="M7.144,43.574h25.019V18.097H7.144V43.574z M12.729,22.228l2.372,13.083l3.06-13.083l3.749,0.076
			l3.061,13.236l2.296-13.312h3.289l-3.519,17.138h-4.285l-2.754-12.471l-2.984,12.547h-4.208l-3.52-17.215H12.729z"/>
		<path fill="#FFFFFF" d="M106.988,18.097v25.478h25.019V18.097H106.988z M121.678,39.52c-6.273,0-9.104,0.076-9.104,0.076V22.228
			h7.421c0,0,7.65-0.842,7.65,6.044v4.82C127.646,33.092,127.952,39.52,121.678,39.52z"/>
		<path fill="#FFFFFF" d="M121.296,25.059h-5.203v11.476c0,0,2.831,0,5.432,0c2.601,0,2.677-3.367,2.677-3.367s0-0.535,0-4.437
			S121.296,25.059,121.296,25.059z"/>
		<polygon fill="#FFFFFF" points="86.79,24.982 89.162,24.982 89.162,36.535 86.79,36.535 86.79,39.366 101.403,39.366 
			101.403,33.781 98.496,33.781 98.496,36.535 92.299,36.535 92.299,31.869 96.889,31.869 96.889,29.037 92.299,29.037 
			92.299,24.982 98.267,24.982 98.267,27.737 101.403,27.737 101.403,22.151 86.79,22.151 		"/>
	</g>
</g>
</svg>

<svg xmlns="http://www.w3.org/2000/svg" width="124.863" height="25.478" viewBox="0 0 124.863 25.478">
  <g id="wired-logo" transform="translate(-7.144 -18.097)">
    <g id="Group_4" data-name="Group 4">
      <path id="Path_26" data-name="Path 26" d="M57.181,43.574H82.2V18.1H57.181Zm5.738-21.423h9.946a4.068,4.068,0,0,1,4.285,4.438c0,4.667-2.6,4.9-2.6,4.9s2.6.153,2.6,3.749v3.979H73.707v-3.75s0-2.906-1.989-2.906-5.432.076-5.432.076v6.656H62.92V22.151Z" fill="#595959"/>
      <path id="Path_27" data-name="Path 27" d="M73.707,27.2c0-2.448-2.6-2.065-2.6-2.065h-4.82V29.88s2.6-.077,4.744-.077S73.707,29.344,73.707,27.2Z" fill="#595959"/>
      <path id="Path_28" data-name="Path 28" d="M38.934,25.02h4.208V36.5H38.934v2.907H51.023V36.5H46.432V25.02h4.591V22.114H38.934Z" fill="#595959"/>
      <path id="Path_29" data-name="Path 29" d="M7.144,43.574H32.163V18.1H7.144Zm5.585-21.346L15.1,35.311l3.06-13.083,3.749.076L24.971,35.54l2.3-13.312h3.289L27.037,39.366H22.752L20,26.9,17.014,39.442H12.806L9.286,22.227h3.443Z" fill="#595959"/>
      <path id="Path_30" data-name="Path 30" d="M106.988,18.1V43.575h25.019V18.1Zm14.69,21.423c-6.273,0-9.1.076-9.1.076V22.228H120s7.65-.842,7.65,6.044v4.82S127.952,39.52,121.678,39.52Z" fill="#595959"/>
      <path id="Path_31" data-name="Path 31" d="M121.3,25.059h-5.2V36.535h5.432c2.6,0,2.677-3.367,2.677-3.367V28.731C124.2,24.829,121.3,25.059,121.3,25.059Z" fill="#595959"/>
      <path id="Path_32" data-name="Path 32" d="M86.79,24.982h2.372V36.535H86.79v2.831H101.4V33.781H98.5v2.754H92.3V31.869h4.59V29.037H92.3V24.982h5.968v2.755H101.4V22.151H86.79Z" fill="#595959"/>
    </g>
  </g>
</svg>
